X:4645
T:Polska
C:e. Christina Moberg
L:1/16
M:3/4
O:Sweden
R:Polska
R:Senpolska
Z:Richard Robinson 
%%TUNEURL: http://www.leeds.ac.uk/music/Info/RRTuneBk/gettune/00000baf.html
%%ID:00000baf
K:D min
A2|\
d3^c A2c2 d2e2| f2ed ^cdeg f4|\
fefg a2gf e2^c2| d2fa g2fe ^c2A2|
d3^c A2c2 d2e2| f2ed ^cdeg f4|\
fefg a2gf e2d2 | ^c4 d6 ::
a2|\
a3f d2f2 a2f2| g3a b2ab g4|\
g3e c2e2 g2e2| f3g a2ga f2e2|
d3^c A2c2 d2e2| f2ed ^cdeg f4|\
fefg a2gf e2d2 | ^c4 d6 :|
